src/assets/voice_message_icons/speaker-no-sound.svg

<svg fill="none" height="19" viewBox="0 0 27 19" width="27" xmlns="http://www.w3.org/2000/svg"><path clip-rule="evenodd" d="m15.5348.144187c.2996.181103.4827.505711.4827.855813v16.5592c0 .3501-.1831.6748-.4827.8559-.2997.1811-.6722.1923-.9822.0295l-9.34556-4.9064c-.32906-.1728-.53516-.5137-.53516-.8854v-6.74636c0-.37165.2061-.71264.53516-.88539l9.34556-4.906447c.31-.16274.6825-.1515187.9822.029584zm-8.86292 6.366693v5.53752l7.34562 3.8564v-13.25036z" fill="#fff" fill-rule="evenodd"/><rect height="7.00921" rx="1" stroke="#fff" stroke-width="2" width="4.6728" x="1" y="5.62842"/></svg>

<svg width="27" height="19" viewBox="0 0 27 19" fill="none" xmlns="http://www.w3.org/2000/svg">
<path fill-rule="evenodd" clip-rule="evenodd" d="M15.5348 0.144187C15.8344 0.32529 16.0175 0.649898 16.0175 1V17.5592C16.0175 17.9093 15.8344 18.234 15.5348 18.4151C15.2351 18.5962 14.8626 18.6074 14.5526 18.4446L5.20704 13.5382C4.87798 13.3654 4.67188 13.0245 4.67188 12.6528V5.90644C4.67188 5.53479 4.87798 5.1938 5.20704 5.02105L14.5526 0.114603C14.8626 -0.048137 15.2351 -0.0369157 15.5348 0.144187ZM6.67188 6.51088V12.0484L14.0175 15.9048V2.65444L6.67188 6.51088Z" fill="white"/>
<rect x="1" y="5.62842" width="4.6728" height="7.00921" rx="1" stroke="white" stroke-width="2"/>
</svg>
